assets/images/depfin-services-interview/icon-cross.svg

<svg xmlns="http://www.w3.org/2000/svg" width="25.5" height="25.5"><path fill-rule="evenodd" stroke="#000" stroke-linecap="round" d="M22.505 20.127L21.14 21.49l-8.733-8.716-8.996 9.029-1.353-1.359 8.574-8.605-8.574-8.605 1.353-1.358 8.653 8.684 9.076-9.059 1.365 1.363-8.648 8.632 8.648 8.631z"/></svg>

<svg
        xmlns="http://www.w3.org/2000/svg"
        xmlns:xlink="http://www.w3.org/1999/xlink"
        width="25.5px" height="25.5px">
    <path fill-rule="evenodd"  stroke="rgb(0, 0, 0)" stroke-width="1px" stroke-linecap="round" stroke-linejoin="miter" fill="#000"
          d="M22.505,20.127 L21.140,21.490 L12.407,12.774 L3.411,21.803 L2.058,20.444 L10.632,11.839 L2.058,3.234 L3.411,1.876 L12.064,10.560 L21.140,1.501 L22.505,2.864 L13.857,11.496 L22.505,20.127 Z"/>
</svg>
